X:1
T:MARCHE DES ROIS 
%%score 1 2 ( 3 4 ) 5
L:1/8
M:4/4
K:Bb
V:1 treble nm="Soprano" snm="S."
V:2 treble nm="Alto" snm="A."
V:3 treble nm="T" snm="T."
V:4 treble 
V:5 bass nm="B" snm="B."
V:1
 z8 |"^c1" z8 | z8 | z8 | z8 | z8 | z8 | z8 | z8 | z8 | z8 | z8 | z8 | z8 | z8 | z8 | %16
w: ||||||||||||||||
"Gm" z2 z3/2 G/ G2 D2 |"Gm""^c2" G7/2 A/ B3/2 A/ B3/2 A/ | d2- d/ z/ B"Cm" c2 d2 | e d c B A2 d2 | %20
w: Puis sur un|char do- ré de tou- tes|parts _ On voit trois|rois mo- des- tes com- me|
"D" cB A z/ B/"Gm" G2 D2 | G7/2 A/ B3/2 A/ B3/2 G/ | d2- d/ z/ B"Cm" c2 d2 | e d c B"D" B2 A2 | %24
w: d'an _ ges, Puis sur un|char do- ré de tou- tes|parts _ Trois rois de-|bout par- mi les é- ten-|
"Gm" G2- G z/ A/"D" A2 A2 | B2 A3/2 G/ A2 B2 | c2 z B c2 d2 |"Cm" G2 A B c B A G | %28
w: dards _ L'é- toi- le|luit et les rois con-|duit par longs che-|mins de- vant u- ne pauvre é-|
"D" (G^F) D z/ A/ A2 A2 | B2 A3/2 G/ A2 B2 |"Cm" c2- c/ z/ B c2 d2 | e d c B B2"D" A2 | %32
w: ta _ ble. L'é- toi- le|luit et les rois con-|duit _ par longs che-|mins de- vant l'hum- ble ré-|
"Gm" G3 z/ G/ G2 D2 |"Gm""^c3" G7/2 A/ B3/2 A/ B3/2 G/ | d2- d/ z/ B"Cm" c2 d2 | e d c B A2 d2 | %36
w: duit Au fils de|Dieu qui na- quit en ce|lieu _ Ils vien- nent|tous pré- sen- ter leurs hom-|
"D" (cB) A z/ B/"Gm" G2 D2 | G7/2 A/ B3/2 A/ B3/2 G/ | d2- d/ z/ B"Cm" c2 d2 | e d c B"D" B2 A2 | %40
w: ma _ ges Au fils de|Dieu qui na- quit en ce|lieu _ Ils vien- nent|tous pré- sen- ter leurs doux|
"Gm" G3 z/ A/"D" A2 A2 | B2 A3/2 G/ A2 B2 | c2 z B c2 d2 |"Cm" G2 A B c B A G | %44
w: voeux De beaux pré-|sents, or, myrrhe et en-|cens, Ils vont of-|frir au Maî- tre tant ad- mi-|
"D" (G^F) D z/ A/ A2 A2 | B2 A3/2 G/ A2 B2 |"Cm" c3 z/ B/ c2 d2 | e d c B B2"D" A2 |"Gm" G8 |] %49
w: ra _ ble de beaux pré-|sents, or, myrrhe et en-|cens Ils vont of-|frir au bien- heu- reux en-|fant.|
V:2
 z8 | z8 | z8 | z8 | z8 | z8 | z8 | z8 | z8 | z8 | z8 | z8 | z8 | z8 | z8 | z8 | z8 | %17
w: |||||||||||||||||
 (3DDD D z z4 | (3GGG G z z4 | (3BBB B z z2 ^F z | (3GGG G z z4 | (3DDD D z z4 | %22
w: la la la la|la la la la|la la la la *|la la la la|la la la la|
 (3FFF F z G z G z | (3GGG G z G z ^F z | G z z3/2 ^F/ F2 F2 | G2 ^F3/2 =E/ F2 G2 | %26
w: la la la la la la|la la la la la la|la L'é- toi- le|luit et les rois con-|
 A2 z G A2 (GF) | E2 z2 G z E z | D3 z/ ^F/ F2 F2 | G2 ^F3/2 =E/ F2 G2 | A2- A/ z/ z G z E z | %31
w: duit par longs che _|mins la la|la L'é- toi- le|luit et les rois con-|duit _ la la|
 (3GGG G z G z ^F z | G z z z/ G/ G2 D2 | G7/2 A/ B3/2 A/ B3/2 G/ | d2- d/ z/ B c2 d2 | %35
w: la la la la la la|* Au fils de|Dieu qui na- quit en ce|lieu _ Ils vien- nent|
 e d c B A2 d2 | (cB) A z/ B/ G2 D2 | G7/2 A/ B3/2 A/ B3/2 G/ | d2- d/ z/ B c2 d2 | e d c B B2 A2 | %40
w: tous pré- sen- ter leurs hom-|ma _ ges Au fils de|Dieu qui na- quit en ce|lieu _ Ils vien- nent|tous pré- sen- ter leurs doux|
 G3 z/ ^F/ F2 F2 | G2 ^F3/2 =E/ F2 G2 | A2 z G A2 F2 | G2 G F E E =E E | D2 D z/ ^F/ G2 D2 | %45
w: voeux De beaux pré-|sents, or, myrrhe et en-|cens, Ils vont of-|frir au Maî- tre tant ad- mi-|ra- ble de beaux pré-|
 D2 D3/2 D/ D2 F2 | E3 z/ G/ G2 G2 | G G G G G2 ^F2 | G8 |] %49
w: sents, or, myrrhe et en-|cens Ils vont of-|frir au bien- heu- reux en-|fant.|
V:3
 z3 z/ G/ G2 D2 |"Gm" G7/2 A/ B3/2 A/ B3/2 G/ | d2- d/ z/ B"Cm" c2 d2 | e d c B"D" A2 d2 | %4
w: De bon ma-|tin j'ai ren- con- tré le|train _ De trois grands|rois qui al- laient en voy-|
 (cB) A z/ B/"Gm" G2 D2 | G7/2 A/ B3/2 A/ B3/2 G/ |"Bb" d2- d/ z/ B"Cm" c2 d2 | e d c B B2"D" A2 | %8
w: a _ ge De bon ma-|tin j'ai ren- con- tré le|train _ De trois grands|rois des- sus le grand che-|
"Gm" G2 x A"D" A2 A2 |"Gm" B2 A3/2 G/"D" A2 B2 |"Cm" c3 z/ B/ c2 d2 |"Gm" G2 A B c B A G | %12
w: min. Ve- naient d'a-|bord des gar- des du|corps, Des gens ar-|més a- vec tren- te pe- tits|
"D" (G^F) D z/ A/ A2 A2 |"Gm" B2 A3/2 G/"D" A2 B2 |"Cm" c3 z/ B/ c2 d2 |"D" e d c B B2 A2 | %16
w: pa _ ~ges, Ve- naient d'a-|bord des gar- des du|corps, des gens ar-|més des- sus leurs jus- tau-|
 G3 z z4 | (3BBB B z z4 | (3BBB B z z4 | (3ccc c z z2 d z | (3ddd d z z4 | (3BBB B z z4 | %22
w: corps.|la la la la|la la la la|la la la la *|la ~la la la|la la la la|
 (3BBB B z G z B z | (3ccc c z d z d z | G z z2 d4- | d2- d z d4- | d2 g4 B2 | c2 z2 d z c B | %28
w: la la la la la la|la la la la la la|la A|_ _ A|_ A- A-|A- la la la|
 A z ^F z (3ddd d z | (3ddd d z (3ddd d z | (3ddd d z G z B z | (3ccc c z d z d z | %32
w: la la la la la la|la la la la la la la la|la la la la la la|la la la la la la|
 G z z2 z2 z3/2 G/ | G2 D2 G7/2 A/ | B3/2 A/ B3/2 G/ d2- d/ z/ B | c2 d2 e d c B | %36
w: la Au|fils de Dieu qui|na- quit en ce lieu _ Ils|vien- nent tous pré- sen- ter|
 A2 d2 (cB) A z/ B/ | G2 D2 G7/2 A/ | B3/2 A/ B3/2 G/ d2- d/ z/ B | c2 d2 e d c B | B2 A2 d3 z | %41
w: leurs hom- ma _ ges Au|fils de Dieu qui|na- quit en ce lieu _ Ils|vien- nent tous pré- sen- ter|leurs doux voeux|
 z8 | z2 d2 A2 B2 | B2 c d e G A B | BA ^F z/ d/ ^c2 =c2 | B2 c3/2 B/ A2 G2 | G3 z/ d/ c2 B2 | %47
w: |Ils vont of-|frir au Maî- tre tant ad- mi-|ra _ ble de beaux pré-|sents, or, myrrhe et en-|cens Ils vont of-|
 A B c d e2 c2 | d8 |] %49
w: frir au bien- heu- reux en-|fant.|
V:4
 x8 | x8 | B2- B/ z/ B G2 G2 | GGGG G2 G2 | AG ^F z/ B/ G2 D2 | G7/2 ^F/ G3/2 F/ G3/2 G/ | %6
 =F2- F/ z/ F G2 A=B | c B A G G2 ^F2 | G2 x6 | x8 | c3 z/ B/ c2 (BA) | x8 | G^F D z/ F/ F2 F2 | %13
 G2 A>G A2 B2 | G3 z/ G/ G2 G2 | G G G G G2 ^F2 | x8 | x8 | x8 | x8 | x8 | x8 | x8 | x8 | x8 | x8 | %26
 x8 | x8 | x8 | x8 | x8 | x8 | x8 | x8 | x8 | x8 | x8 | x8 | x8 | x8 | x8 | x8 | x8 | x8 | x8 | %45
 x8 | x8 | x8 | x8 |] %49
V:5
 z3 z/ G,/ G,2 D,2 | G,7/2 ^F,/ G,3/2 D,/ G,3/2 G,/ | G,2- G,/ z/ G, E,2 D,2 | %3
w: De bon ma-|tin j'ai ren- con- tré le|train _ De trois grands|
 C, D, E, D, C,2 B,,2 | C,2 D, z/ B,/ G,2 D,2 | G,7/2 D,/ G,3/2 D,/ G,3/2 E,/ | %6
w: rois qui al- laient en voy-|a- ge De bon ma-|tin j'ai ren- con- tré le|
 B,,2- B,,/ z/ D, E,2 G,2 | C, D, E, D, C,2 D,2 | G,,3 z z4 | z8 | z2 z3/2 B,/ (B,A,) (G,F,) | %11
w: train _ De trois grands|rois des- sus le grand che-|min.||Des gens _ ar _|
 (E,D,) C, B,, A,, B,, C, ^C, | D,2 D, z/ D,/ D,2 D,2 | G,2 D,3/2 B,,/ D,2 (G,F,) | %14
w: més _ a- vec tren- te pe- tits|pa- ges, Ve- naient d'a-|bord des gar- des du _|
 E,3 z/ D,/ E,2 =B,,2 | C, D, E, D, C,2 D,2 | G,3 z z4 | (3G,G,G, G, z z4 | (3G,G,G, G, z z4 | %19
w: corps, des gens ar-|més des- sus leurs jus- tau-|corps.|la la la la|la la la la|
 (3C,C,C, E, z z2 D, z | (3G,G,G, G, z z4 | (3G,G,G, G, z z4 | (3B,,B,,B,, B,, z E, z D, z | %23
w: la la la la *|la la la la|la la la la|la la la la la la|
 (3C,C,C, E, z D, z D, z | G,, z z2 z4 | z8 | z8 | z4 G, z C, z | D,3 z (3D,D,D, D, z | %29
w: la la la la la la|la|||la la|la la la la la|
 (3B,,B,,B,, B,, z (3B,,B,,B,, B,, z | (3B,,B,,B,, B,, z E, z D, z | (3C,C,C, E, z D, z D, z | %32
w: la la la la la la la la|la la la la la la|la la la la la la|
 G,, z z2 z2 z3/2 G,/ | G,2 D,2 G,7/2 A,/ | B,3/2 A,/ B,3/2 G,/ D2- D/ z/ D, | C2 D2 E D C B, | %36
w: la Au|fils de Dieu qui|na- quit en ce lieu _ Ils|vien- nent tous pré- sen- ter|
 A,2 D2 (CB,) A, z/ B,/ | G,2 D,2 G,7/2 A,/ | B,3/2 A,/ B,3/2 G,/ D2- D/ z/ B, | C2 D2 E D C B, | %40
w: leurs hom- ma _ ges Au|fils de Dieu qui|na- quit en ce lieu _ Ils|vien- nent tous pré- sen- ter|
 B,2 A,2 D,3 z | z8 | z2 G,2 F,2 B,,2 | E,2 D, D, C, C, ^C, C, | D,2 D, z/ D,/ =E,2 ^F,2 | %45
w: leurs doux voeux||Ils vont of-|frir au Maî- tre tant ad- mi-|ra- ble de beaux pré-|
 G,2 G,3/2 G,/ F,2 D,2 | C,3 z/ G,/ E,2 D,2 | C, B,, E, D, C,2 D,2 | [G,,G,]8 |] %49
w: sents, or, myrrhe et en-|cens Ils vont of-|frir au bien- heu- reux en-|fant.|

